img/linkedin.svg

<?xml version="1.0" encoding="UTF-8"?>
<svg xmlns="http://www.w3.org/2000/svg" xmlns:xlink="http://www.w3.org/1999/xlink" width="24pt" height="24pt" viewBox="0 0 24 24" version="1.1">
<g id="surface9739523">
<path style=" stroke:none;fill-rule:nonzero;fill:rgb(100%,100%,100%);fill-opacity:1;" d="M 19 3 L 5 3 C 3.894531 3 3 3.894531 3 5 L 3 19 C 3 20.105469 3.894531 21 5 21 L 19 21 C 20.105469 21 21 20.105469 21 19 L 21 5 C 21 3.894531 20.105469 3 19 3 Z M 7.738281 17 C 7.039062 17 6.476562 16.433594 6.476562 15.738281 L 6.476562 11.261719 C 6.476562 10.566406 7.042969 10 7.738281 10 C 8.433594 10 9 10.566406 9 11.261719 L 9 15.738281 C 9 16.433594 8.433594 17 7.738281 17 Z M 7.695312 8.71875 C 6.921875 8.71875 6.40625 8.203125 6.40625 7.515625 C 6.40625 6.832031 6.921875 6.316406 7.777344 6.316406 C 8.550781 6.316406 9.066406 6.832031 9.066406 7.515625 C 9.066406 8.203125 8.550781 8.71875 7.695312 8.71875 Z M 16.777344 17 C 16.105469 17 15.558594 16.453125 15.558594 15.777344 L 15.558594 13.175781 C 15.558594 12.117188 14.90625 12 14.664062 12 C 14.417969 12 13.605469 12.035156 13.605469 13.175781 L 13.605469 15.777344 C 13.605469 16.453125 13.058594 17 12.382812 17 L 12.304688 17 C 11.628906 17 11.082031 16.453125 11.082031 15.777344 L 11.082031 11.261719 C 11.082031 10.566406 11.648438 10 12.34375 10 C 13.039062 10 13.605469 10.566406 13.605469 11.261719 C 13.605469 11.261719 13.886719 10 15.804688 10 C 17.023438 10 18 10.976562 18 13.175781 L 18 15.777344 C 18 16.453125 17.453125 17 16.777344 17 Z M 16.777344 17 "/>
</g>
</svg>

<?xml version="1.0"?><svg fill="#000000" xmlns="http://www.w3.org/2000/svg" viewBox="0 0 24 24" width="24px" height="24px">    <path d="M19,3H5C3.895,3,3,3.895,3,5v14c0,1.105,0.895,2,2,2h14c1.105,0,2-0.895,2-2V5C21,3.895,20.105,3,19,3z M7.738,17L7.738,17 c-0.697,0-1.262-0.565-1.262-1.262v-4.477C6.477,10.565,7.042,10,7.738,10h0C8.435,10,9,10.565,9,11.262v4.477 C9,16.435,8.435,17,7.738,17z M7.694,8.717c-0.771,0-1.286-0.514-1.286-1.2s0.514-1.2,1.371-1.2c0.771,0,1.286,0.514,1.286,1.2 S8.551,8.717,7.694,8.717z M16.779,17L16.779,17c-0.674,0-1.221-0.547-1.221-1.221v-2.605c0-1.058-0.651-1.174-0.895-1.174 s-1.058,0.035-1.058,1.174v2.605c0,0.674-0.547,1.221-1.221,1.221h-0.081c-0.674,0-1.221-0.547-1.221-1.221v-4.517 c0-0.697,0.565-1.262,1.262-1.262h0c0.697,0,1.262,0.565,1.262,1.262c0,0,0.282-1.262,2.198-1.262C17.023,10,18,10.977,18,13.174 v2.605C18,16.453,17.453,17,16.779,17z"/></svg>
